data/Images/Stratagem Icons/hd2/anti-materiel_rifle.svg

<svg xmlns="http://www.w3.org/2000/svg" viewBox="0 0 126 126" fill="#fff">
	<path fill-rule="evenodd" fill="#49adc9" d="M29 85v-4h20v3l-2 1h-3v2h6l1 1h1v-2h9l2 2h11l2 2h30v-2h15v7h-15v-2H76v3h-3v-1h-2v11h2v2h-6v-2h2V96l-2-2h-2l-1 1H54l-1 1h-3v5h-2v-4H38v2l-3-1h-2l-5 3v4h-4l-1-3 4-4v-2l-1-2h-8l-1 2v1l-1 2h-5l-4 3H4V90l3-2h20l1-1h6v-2h-5ZM7 98v-5h8v1l-5 4H7Zm26-2h2v1h-2v-1Z"/>
	<path d="M60 17h4v50h-4z"/>
	<path d="M37 40h51v4H37z"/>
	<path fill-rule="evenodd" d="M62 22a20 20 0 1 1-20 20 20 20 0 0 1 20-20Zm0 5a15 15 0 1 1-15 15 15 15 0 0 1 15-15Z"/>
</svg>

<svg id="HD2-AMR" xmlns="http://www.w3.org/2000/svg" xmlns:xlink="http://www.w3.org/1999/xlink" viewBox="0 0 126 126">
  <defs>
    <style>
      .cls-1 {
        fill: #49adc9;
      }

      .cls-1, .cls-3 {
        fill-rule: evenodd;
      }

      .cls-2, .cls-3 {
        fill: #fff;
      }
    </style>
  </defs>
  <path class="cls-1" d="M29,85V81H49v3l-2,1H44v2h6l1,1h1V86h9l2,2H74l2,2h30V88h15v7H106V93H76v3H73V95H71v11h2v2H67v-2h2V96l-2-2H65l-1,1H54l-1,1H50v5H48V97H38v2l-3-1H33l-5,3v4H24l-1-3,4-4V96l-1-2H18l-1,2v1l-1,2H11l-4,3H4V90l3-2H27l1-1h6V85H29ZM7,98V93h8v1l-5,4H7Zm26-2h2v1H33V96Z"/>
  <rect class="cls-2" x="60" y="17" width="4" height="50"/>
  <rect id="Rectangle_1_copy" data-name="Rectangle 1 copy" class="cls-2" x="37" y="40" width="51" height="4"/>
  <path class="cls-3" d="M62,22A20,20,0,1,1,42,42,20,20,0,0,1,62,22Zm0,5A15,15,0,1,1,47,42,15,15,0,0,1,62,27Z"/>
</svg>
